Newaita-dark/.DP/16/youtube-indicator-light-sync2.svg

<svg xmlns="http://www.w3.org/2000/svg" xmlns:xlink="http://www.w3.org/1999/xlink" width="16px" height="16px" viewBox="0 0 16 16" version="1.1">
<g id="surface1">
<path style=" stroke:none;fill-rule:nonzero;fill:rgb(93.333334%,93.333334%,93.333334%);fill-opacity:1;" d="M 10.816406 10.019531 C 10.710938 10.046875 10.621094 10.113281 10.5625 10.214844 C 10.550781 10.238281 10.539062 10.261719 10.527344 10.289062 C 10.265625 10.789062 10.179688 11.382812 10.335938 11.96875 C 10.496094 12.554688 10.863281 13.027344 11.34375 13.328125 C 11.363281 13.34375 11.386719 13.363281 11.410156 13.375 C 11.609375 13.492188 11.863281 13.421875 11.976562 13.226562 C 12.089844 13.027344 12.023438 12.773438 11.824219 12.660156 C 11.800781 12.644531 11.777344 12.636719 11.75 12.625 C 11.453125 12.433594 11.226562 12.132812 11.125 11.757812 C 11.027344 11.382812 11.074219 11.007812 11.234375 10.691406 C 11.25 10.671875 11.265625 10.652344 11.28125 10.625 C 11.394531 10.429688 11.328125 10.175781 11.128906 10.0625 C 11.03125 10.003906 10.917969 9.992188 10.816406 10.019531 Z M 10.816406 10.019531 "/>
<path style=" stroke:none;fill-rule:nonzero;fill:rgb(93.333334%,93.333334%,93.333334%);fill-opacity:1;" d="M 14.324219 12.722656 C 14.425781 12.695312 14.515625 12.628906 14.574219 12.527344 C 14.589844 12.503906 14.601562 12.476562 14.609375 12.453125 C 14.871094 11.953125 14.957031 11.359375 14.800781 10.773438 C 14.644531 10.1875 14.273438 9.714844 13.792969 9.414062 C 13.773438 9.398438 13.75 9.378906 13.726562 9.367188 C 13.527344 9.25 13.277344 9.320312 13.160156 9.515625 C 13.046875 9.714844 13.113281 9.96875 13.3125 10.082031 C 13.335938 10.09375 13.363281 10.105469 13.386719 10.117188 C 13.683594 10.308594 13.910156 10.609375 14.011719 10.984375 C 14.113281 11.359375 14.066406 11.734375 13.90625 12.050781 C 13.886719 12.070312 13.871094 12.089844 13.859375 12.113281 C 13.742188 12.3125 13.8125 12.566406 14.007812 12.679688 C 14.109375 12.738281 14.222656 12.75 14.324219 12.722656 Z M 14.324219 12.722656 "/>
<path style=" stroke:none;fill-rule:nonzero;fill:rgb(93.333334%,93.333334%,93.333334%);fill-opacity:1;" d="M 7.917969 2.910156 C 7.917969 2.910156 3.585938 2.910156 2.503906 3.195312 C 1.921875 3.351562 1.445312 3.832031 1.285156 4.425781 C 1 5.507812 1 7.753906 1 7.753906 C 1 7.753906 1 10.011719 1.285156 11.082031 C 1.445312 11.675781 1.910156 12.140625 2.503906 12.300781 C 3.597656 12.597656 7.917969 12.597656 7.917969 12.597656 C 7.917969 12.597656 8.992188 12.597656 10.203125 12.5625 C 10.023438 12.203125 9.921875 11.800781 9.921875 11.371094 C 9.921875 9.90625 11.101562 8.726562 12.570312 8.726562 C 13.472656 8.726562 14.265625 9.171875 14.742188 9.859375 C 14.839844 8.839844 14.839844 7.765625 14.839844 7.765625 C 14.839844 7.765625 14.851562 5.507812 14.554688 4.425781 C 14.394531 3.832031 13.925781 3.363281 13.332031 3.207031 C 12.25 2.910156 7.917969 2.910156 7.917969 2.910156 Z M 6.597656 5.21875 C 6.601562 5.21875 6.609375 5.21875 6.613281 5.21875 C 6.671875 5.222656 6.726562 5.238281 6.773438 5.265625 L 10.457031 7.441406 C 10.675781 7.570312 10.675781 7.886719 10.457031 8.015625 L 6.773438 10.195312 C 6.550781 10.324219 6.269531 10.164062 6.269531 9.90625 L 6.269531 5.554688 C 6.269531 5.371094 6.417969 5.222656 6.597656 5.21875 Z M 6.597656 5.21875 "/>
</g>
</svg>

<svg xmlns="http://www.w3.org/2000/svg" width="16" height="16"><g fill="#bdbdbd"><path d="M10.816 10.02a.408.408 0 0 0-.254.195 1.343 1.343 0 0 0-.035.074 2.32 2.32 0 0 0-.191 1.68c.16.586.527 1.058 1.008 1.36.02.015.043.034.066.046a.413.413 0 1 0 .414-.715c-.023-.015-.047-.023-.074-.035a1.508 1.508 0 0 1-.516-1.934c.016-.02.032-.039.047-.066a.411.411 0 0 0-.152-.563.403.403 0 0 0-.313-.042zm0 0M14.324 12.723a.41.41 0 0 0 .25-.196.32.32 0 0 0 .035-.074 2.32 2.32 0 0 0 .192-1.68 2.299 2.299 0 0 0-1.008-1.359c-.02-.016-.043-.035-.066-.047a.414.414 0 0 0-.567.149.415.415 0 0 0 .152.566l.075.035c.297.192.523.492.625.867.101.375.054.75-.106 1.067a.413.413 0 0 0 .418.672zm0 0"/><path d="M7.918 2.91s-4.332 0-5.414.285a1.76 1.76 0 0 0-1.219 1.23C1 5.509 1 7.755 1 7.755s0 2.258.285 3.328a1.73 1.73 0 0 0 1.219 1.219c1.094.297 5.414.297 5.414.297s1.074 0 2.285-.036a2.65 2.65 0 0 1-.281-1.19 2.64 2.64 0 0 1 2.648-2.645 2.63 2.63 0 0 1 2.172 1.132c.098-1.02.098-2.093.098-2.093s.012-2.258-.285-3.34a1.728 1.728 0 0 0-1.223-1.219C12.25 2.91 7.918 2.91 7.918 2.91zM6.598 5.22h.015c.059.004.114.02.16.047l3.684 2.175a.333.333 0 0 1 0 .575l-3.684 2.18a.336.336 0 0 1-.503-.29V5.555c0-.184.148-.332.328-.336zm0 0"/></g></svg>
